img/deno.svg

<?xml version="1.0" encoding="UTF-8" standalone="no"?>
<svg
   class="text-default h-10 flex-none dark:text-gray-900"
   viewBox="0 0 64 64"
   fill="none"
   aria-label="Deno Logo"
   version="1.1"
   id="svg6"
   sodipodi:docname="deno-icon.svg"
   width="64"
   height="64"
   inkscape:version="1.3.2 (091e20e, 2023-11-25)"
   xmlns:inkscape="http://www.inkscape.org/namespaces/inkscape"
   xmlns:sodipodi="http://sodipodi.sourceforge.net/DTD/sodipodi-0.dtd"
   xmlns="http://www.w3.org/2000/svg"
   xmlns:svg="http://www.w3.org/2000/svg">
  <sodipodi:namedview
     id="namedview6"
     pagecolor="#ffffff"
     bordercolor="#000000"
     borderopacity="0.25"
     inkscape:showpageshadow="2"
     inkscape:pageopacity="0.0"
     inkscape:pagecheckerboard="0"
     inkscape:deskcolor="#d1d1d1"
     inkscape:zoom="17.833333"
     inkscape:cx="15"
     inkscape:cy="14.971963"
     inkscape:window-width="1392"
     inkscape:window-height="997"
     inkscape:window-x="1899"
     inkscape:window-y="25"
     inkscape:window-maximized="0"
     inkscape:current-layer="svg6" />
  <g
     clip-path="url(#clip0_29_599)"
     id="g6"
     transform="scale(2.1333333)">
    <path
       d="M 15,0 C 23.2843,0 30,6.71572 30,15 30,23.2843 23.2843,30 15,30 6.71572,30 0,23.2843 0,15 0,6.71572 6.71572,0 15,0 Z"
       fill="currentColor"
       id="path1" />
    <path
       d="m 14.6635,22.3394 c -0.3847,-0.1037 -0.7804,0.119 -0.893,0.4987 l -0.005,0.0177 -0.9961,3.6914 -0.0045,0.0178 c -0.0938,0.3848 0.1362,0.7764 0.5209,0.8801 0.3846,0.1039 0.7803,-0.1188 0.8929,-0.4986 l 0.005,-0.0176 0.996,-3.6914 0.0046,-0.0179 c 0.0068,-0.0277 0.0119,-0.0556 0.0154,-0.0834 L 15.2026,23.1084 15.179,22.9888 15.1445,22.8166 15.1227,22.7091 C 15.076,22.619 15.0111,22.5396 14.932,22.4759 14.853,22.4123 14.7615,22.3658 14.6635,22.3394 Z M 7.7224,18.5379 C 7.70424,18.5741 7.68883,18.6123 7.67658,18.6522 L 7.66967,18.6763 6.67358,22.3677 6.669,22.3856 c -0.09375,0.3848 0.13624,0.7763 0.5209,0.8801 0.38461,0.1038 0.78036,-0.1188 0.89297,-0.4986 L 8.08779,22.7494 8.99096,19.4023 C 8.51793,19.1518 8.09336,18.8628 7.7224,18.5379 Z M 5.34707,14.2929 C 4.9624,14.1891 4.56666,14.4117 4.4541,14.7915 l -0.00498,0.0177 -0.99609,3.6914 -0.00457,0.0178 c -0.09375,0.3848 0.13623,0.7763 0.5209,0.8801 0.38461,0.1038 0.78035,-0.1188 0.89296,-0.4986 L 4.86725,18.8822 5.86334,15.1908 5.86791,15.173 C 5.96166,14.7882 5.73174,14.3967 5.34707,14.2929 Z M 27.682,13.4546 c -0.3847,-0.1038 -0.7805,0.1188 -0.893,0.4986 l -0.005,0.0177 -0.9961,3.6914 -0.0046,0.0178 c -0.0937,0.3848 0.1363,0.7763 0.5209,0.8801 0.3847,0.1038 0.7804,-0.1188 0.893,-0.4986 l 0.0049,-0.0177 0.9961,-3.6914 0.0046,-0.0178 C 28.2965,13.9499 28.0666,13.5584 27.682,13.4546 Z M 3.17781,8.52527 C 2.34361,10.0444 1.81243,11.7112 1.61377,13.4329 1.7088,13.5412 1.83381,13.619 1.97301,13.6563 2.35768,13.7602 2.75342,13.5375 2.86598,13.1577 L 2.87096,13.1401 3.86705,9.44865 3.87162,9.43084 C 3.96537,9.04599 3.73539,8.65447 3.35072,8.5507 3.2943,8.53547 3.23623,8.52694 3.17781,8.52527 Z M 25.159,8.5507 C 24.7744,8.44687 24.3786,8.66953 24.266,9.04933 l -0.0049,0.01764 -0.9961,3.69143 -0.0046,0.0178 c -0.0937,0.3848 0.1362,0.7764 0.5209,0.8801 0.3846,0.1039 0.7804,-0.1188 0.893,-0.4986 l 0.0049,-0.0176 0.9961,-3.69145 0.0046,-0.01781 C 25.7736,9.04599 25.5436,8.65447 25.159,8.5507 Z"
       fill="#ffffff"
       id="path2" />
    <path
       d="M 7.51285,5.04065 C 7.12824,4.93682 6.73249,5.15948 6.61988,5.53929 L 6.61495,5.55692 5.61886,9.24833 5.61429,9.26614 C 5.52054,9.65098 5.75052,10.0425 6.13519,10.1463 6.5198,10.2501 6.91554,10.0274 7.02816,9.64764 L 7.03308,9.63001 8.02917,5.9386 8.03374,5.92079 C 8.12749,5.53595 7.89751,5.14442 7.51285,5.04065 Z m 12.79875,0.6978 c -0.3847,-0.10383 -0.7804,0.11882 -0.893,0.49863 l -0.005,0.01763 -0.6693,2.48028 c 0.4336,0.21416 0.8474,0.46627 1.2366,0.7534 l 0.0644,0.04804 0.7826,-2.90004 0.0045,-0.01781 C 20.9262,6.23374 20.6963,5.84221 20.3116,5.73845 Z M 13.7968,1.57642 C 13.3296,1.61771 12.8647,1.68338 12.4043,1.77317 L 12.3066,1.79263 11.3782,5.23419 11.3736,5.252 c -0.0937,0.38484 0.1363,0.77637 0.5209,0.88014 0.3847,0.10382 0.7804,-0.11883 0.893,-0.49864 l 0.0049,-0.01763 0.9961,-3.69141 0.0046,-0.01781 c 0.0265,-0.10834 0.0278,-0.22132 0.0037,-0.33023 z m 9.1658,2.54988 -0.1957,0.72539 -0.0046,0.01775 c -0.0937,0.38485 0.1363,0.77637 0.5209,0.88014 0.3846,0.10383 0.7804,-0.11883 0.893,-0.49863 L 24.1811,5.23331 24.2025,5.15462 C 23.8362,4.81205 23.4511,4.49009 23.0491,4.19022 Z M 17.1672,1.69677 16.8139,3.00593 16.8094,3.02374 c -0.0938,0.38484 0.1362,0.77637 0.5209,0.88014 0.3846,0.10382 0.7803,-0.11883 0.893,-0.49864 L 18.2282,3.38761 18.6,2.00966 C 18.1624,1.88867 17.719,1.79001 17.2714,1.71405 Z"
       fill="#ffffff"
       id="path3" />
    <path
       d="m 9.69085,24.6253 c 0.11256,-0.3798 0.50835,-0.6024 0.89295,-0.4987 0.3847,0.1037 0.6146,0.4953 0.5209,0.8802 l -0.0046,0.0178 -0.7129,2.6418 -0.0996,-0.0367 C 9.85836,27.4694 9.43765,27.2873 9.0271,27.0839 l 0.65877,-2.441 z"
       fill="#ffffff"
       id="path4" />
    <path
       d="m 14.4141,8.49082 c -4.3619,0 -7.75492,2.74598 -7.75492,6.16088 0,3.2252 3.12205,5.2845 7.96192,5.1814 0.4116,-0.0088 0.5306,0.2677 0.6645,0.6403 0.134,0.3726 0.494,2.3363 0.7809,3.8383 0.2568,1.3443 0.5177,2.6935 0.7169,4.0479 3.1605,-0.4178 6.0829,-1.9789 8.2242,-4.3335 L 22.7237,15.5088 C 22.1544,13.4518 21.489,11.5564 19.7283,10.1794 18.3118,9.07166 16.5122,8.49082 14.4141,8.49082 Z"
       fill="#ffffff"
       id="path5" />
    <path
       d="m 15.3516,10.957 c 0.5178,0 0.9375,0.4197 0.9375,0.9375 0,0.5178 -0.4197,0.9375 -0.9375,0.9375 -0.5178,0 -0.9375,-0.4197 -0.9375,-0.9375 0,-0.5178 0.4197,-0.9375 0.9375,-0.9375 z"
       fill="currentColor"
       id="path6" />
  </g>
  <defs
     id="defs6">
    <clipPath
       id="clip0_29_599">
      <rect
         width="30"
         height="30"
         fill="#ffffff"
         id="rect6"
         x="0"
         y="0" />
    </clipPath>
  </defs>
</svg>

<svg xmlns="http://www.w3.org/2000/svg" width="64" height="64" fill="none" aria-label="Deno Logo" class="text-default h-10 flex-none dark:text-gray-900"><g clip-path="url(#a)" transform="scale(2.13333)"><path fill="currentColor" d="M15 0c8.284 0 15 6.716 15 15s-6.716 15-15 15S0 23.284 0 15 6.716 0 15 0"/><path fill="#fff" d="M14.664 22.34a.733.733 0 0 0-.893.498l-.006.018-.996 3.691-.004.018a.732.732 0 0 0 1.414.382l.005-.018.996-3.691.004-.018.016-.084.003-.028-.024-.12-.034-.171-.022-.108a.73.73 0 0 0-.46-.37m-6.942-3.802a1 1 0 0 0-.045.114l-.007.024-.996 3.692-.005.018a.732.732 0 0 0 1.414.381l.005-.018.903-3.347a6.6 6.6 0 0 1-1.269-.864m-2.375-4.245a.73.73 0 0 0-.893.498l-.005.018-.996 3.692-.005.017a.732.732 0 0 0 1.414.382l.005-.018.996-3.691.005-.018a.73.73 0 0 0-.52-.88m22.335-.838a.73.73 0 0 0-.893.498l-.005.018-.996 3.691-.005.018a.732.732 0 0 0 1.414.382l.005-.018.996-3.692.005-.017a.73.73 0 0 0-.521-.88M3.178 8.525a13.4 13.4 0 0 0-1.564 4.908.732.732 0 0 0 1.252-.275l.005-.018.996-3.691.005-.018a.732.732 0 0 0-.694-.906m21.981.026a.73.73 0 0 0-.893.498l-.005.018-.996 3.691-.005.018a.732.732 0 0 0 1.414.382l.005-.018.996-3.691.005-.018a.73.73 0 0 0-.521-.88M7.513 5.04a.73.73 0 0 0-.893.5l-.005.017-.996 3.691-.005.018a.732.732 0 0 0 1.414.382l.005-.018.996-3.691.005-.018a.73.73 0 0 0-.521-.88m12.799.698a.73.73 0 0 0-.893.5l-.005.017-.67 2.48q.652.322 1.237.753l.064.048.783-2.9.004-.017a.73.73 0 0 0-.52-.88m-6.515-4.162a14 14 0 0 0-1.393.197l-.097.02-.929 3.441-.004.018a.732.732 0 0 0 1.413.381l.005-.017.996-3.692.005-.017a.7.7 0 0 0 .004-.33m9.166 2.55-.196.726-.005.017a.732.732 0 0 0 1.414.382l.005-.018.021-.078a14 14 0 0 0-1.153-.965Zm-5.796-2.43-.353 1.31-.005.018a.732.732 0 0 0 1.414.381l.005-.017.372-1.378q-.657-.182-1.329-.296ZM9.69 24.625a.733.733 0 0 1 1.415.382l-.005.018-.713 2.641-.1-.036q-.644-.24-1.26-.546l.659-2.441z"/><path fill="#fff" d="M14.414 8.49c-4.362 0-7.755 2.747-7.755 6.162 0 3.225 3.122 5.284 7.962 5.181.412-.009.53.268.665.64.134.373.494 2.337.78 3.839.257 1.344.518 2.693.717 4.048 3.16-.418 6.083-1.98 8.225-4.334l-2.284-8.517c-.57-2.057-1.235-3.953-2.996-5.33-1.416-1.107-3.216-1.688-5.314-1.688"/><path fill="currentColor" d="M15.352 10.957a.937.937 0 1 1 0 1.875.937.937 0 0 1 0-1.875"/></g><defs><clipPath id="a"><path fill="#fff" d="M0 0h30v30H0z"/></clipPath></defs></svg>
